packages/icons/src/components/Flags/assets/disabled/united-states.svg

<svg width="24" height="24" viewBox="0 0 24 24" fill="none" xmlns="http://www.w3.org/2000/svg">
<g>
<path d="M12 24C18.6274 24 24 18.6274 24 12C24 5.37258 18.6274 0 12 0C5.37258 0 0 5.37258 0 12C0 18.6274 5.37258 24 12 24Z" fill="#F0F0F0"/>
<path d="M11.4782 12.0002H23.9999C23.9999 10.9171 23.8555 9.86786 23.5865 8.86975H11.4782V12.0002Z" fill="#454545"/>
<path d="M11.4782 5.73928H22.2386C21.504 4.54059 20.5648 3.48108 19.4697 2.60883H11.4782V5.73928Z" fill="#454545"/>
<path d="M11.9995 24.0003C14.8236 24.0003 17.4194 23.0242 19.4693 21.3916H4.52966C6.57951 23.0242 9.1753 24.0003 11.9995 24.0003Z" fill="#454545"/>
<path d="M1.76098 18.2611H22.2384C22.8281 17.2988 23.2855 16.247 23.5863 15.1307H0.413086C0.713883 16.247 1.17124 17.2988 1.76098 18.2611V18.2611Z" fill="#454545"/>
<path d="M5.55862 1.87397H6.65217L5.63498 2.61295L6.02353 3.80869L5.00639 3.0697L3.98925 3.80869L4.32487 2.7757C3.42928 3.52172 2.64431 4.39575 1.99744 5.36963H2.34783L1.70034 5.84002C1.59947 6.0083 1.50272 6.17925 1.41 6.35273L1.71919 7.30434L1.14234 6.88523C0.998953 7.18903 0.867797 7.49967 0.749906 7.81678L1.09055 8.86528H2.34783L1.33064 9.60427L1.71919 10.8L0.702047 10.061L0.0927656 10.5037C0.0317812 10.9939 0 11.4932 0 12H12C12 5.37262 12 4.59131 12 0C9.62944 0 7.41961 0.687656 5.55862 1.87397V1.87397ZM6.02353 10.8L5.00639 10.061L3.98925 10.8L4.3778 9.60427L3.36061 8.86528H4.61789L5.00639 7.66955L5.39489 8.86528H6.65217L5.63498 9.60427L6.02353 10.8ZM5.63498 6.10861L6.02353 7.30434L5.00639 6.56536L3.98925 7.30434L4.3778 6.10861L3.36061 5.36963H4.61789L5.00639 4.17389L5.39489 5.36963H6.65217L5.63498 6.10861ZM10.3279 10.8L9.31073 10.061L8.29359 10.8L8.68214 9.60427L7.66495 8.86528H8.92223L9.31073 7.66955L9.69923 8.86528H10.9565L9.93933 9.60427L10.3279 10.8ZM9.93933 6.10861L10.3279 7.30434L9.31073 6.56536L8.29359 7.30434L8.68214 6.10861L7.66495 5.36963H8.92223L9.31073 4.17389L9.69923 5.36963H10.9565L9.93933 6.10861ZM9.93933 2.61295L10.3279 3.80869L9.31073 3.0697L8.29359 3.80869L8.68214 2.61295L7.66495 1.87397H8.92223L9.31073 0.678234L9.69923 1.87397H10.9565L9.93933 2.61295Z" fill="#444444"/>
</g>
<defs>
<clipPath id="clip0_3070_66">
<rect width="24" height="24" fill="white"/>
</clipPath>
</defs>
</svg>

<svg xmlns="http://www.w3.org/2000/svg" width="24" height="24" fill="none" viewBox="0 0 24 24">
    <path fill="#f0f0f0" d="M12 24c6.627 0 12-5.373 12-12S18.627 0 12 0 0 5.373 0 12s5.373 12 12 12"/>
    <path fill="#454545" d="M11.478 12H24c0-1.083-.145-2.132-.413-3.13H11.478zm0-6.26h10.76a12 12 0 0 0-2.768-3.131h-7.992zM12 24c2.824 0 5.42-.976 7.47-2.608H4.53A11.95 11.95 0 0 0 12 24M1.761 18.261h20.477a12 12 0 0 0 1.348-3.13H.413a11.9 11.9 0 0 0 1.348 3.13"/>
    <path fill="#444" d="M5.559 1.874h1.093l-1.017.739.389 1.196-1.018-.74-1.017.74.336-1.033c-.896.746-1.68 1.62-2.328 2.594h.35l-.647.47q-.15.253-.29.513l.31.951-.578-.419q-.215.456-.392.932l.34 1.048h1.258l-1.017.74.388 1.195-1.017-.739-.61.443Q.002 11.24 0 12h12V0C9.63 0 7.42.688 5.559 1.874m.465 8.926-1.018-.739-1.017.739.389-1.196-1.017-.739h1.257l.388-1.195.389 1.195h1.257l-1.017.74zm-.389-4.691.389 1.195-1.018-.739-1.017.74.389-1.196-1.017-.74h1.257l.388-1.195.389 1.196h1.257zm4.693 4.691-1.017-.739-1.017.739.388-1.196-1.017-.739h1.257l.389-1.195.388 1.195h1.258l-1.018.74zm-.389-4.691.389 1.195-1.017-.739-1.017.74.388-1.196-1.017-.74h1.257l.389-1.195.388 1.196h1.258zm0-3.496.389 1.196-1.017-.74-1.017.74.388-1.196-1.017-.739h1.257L9.311.678l.388 1.196h1.258z"/>
</svg>
